src/MEGASync/gui/images/warning.svg

<svg height="22" viewBox="0 0 22 22" width="22" xmlns="http://www.w3.org/2000/svg" xmlns:xlink="http://www.w3.org/1999/xlink"><linearGradient id="a" gradientUnits="userSpaceOnUse" x1="10" x2="10" y2="20"><stop offset="0" stop-color="#ff1a21"/><stop offset="1" stop-color="#d90007"/></linearGradient><g fill-rule="evenodd"><path d="m10 16.5a6.493 6.493 0 0 1 10-5.472c0-.009 0-.018 0-.028a10.064 10.064 0 1 0 -8.321 9.848 6.467 6.467 0 0 1 -1.679-4.348zm.419-3.3 2.666-2.7a.037.037 0 0 1 .063.027v.41a6.444 6.444 0 0 1 1.852-.756v-2.631a.3.3 0 0 0 -.3-.3h-.862a.589.589 0 0 0 -.419.176l-3.319 3.355a.146.146 0 0 1 -.209 0l-3.31-3.355a.589.589 0 0 0 -.419-.176h-.862a.3.3 0 0 0 -.3.3v6.9a.3.3 0 0 0 .3.3h1.256a.3.3 0 0 0 .3-.3v-3.922a.037.037 0 0 1 .059-.028l2.666 2.7a.587.587 0 0 0 .838 0z" fill="url(#a)"/><path d="m10.419 13.2 2.666-2.7a.037.037 0 0 1 .063.027v.41a6.444 6.444 0 0 1 1.852-.756v-2.631a.3.3 0 0 0 -.3-.3h-.862a.589.589 0 0 0 -.419.176l-3.319 3.355a.146.146 0 0 1 -.209 0l-3.31-3.355a.589.589 0 0 0 -.419-.176h-.862a.3.3 0 0 0 -.3.3v6.9a.3.3 0 0 0 .3.3h1.256a.3.3 0 0 0 .3-.3v-3.922a.037.037 0 0 1 .059-.028l2.666 2.7a.587.587 0 0 0 .838 0z" fill="#fff"/><path d="m11 16.5a5.5 5.5 0 1 0 5.5-5.5 5.5 5.5 0 0 0 -5.5 5.5z" opacity=".7"/><path d="m17.207 16.5 2.146-2.146a.5.5 0 0 0 -.707-.707l-2.146 2.146-2.146-2.146a.5.5 0 0 0 -.707.707l2.146 2.146-2.146 2.146a.5.5 0 1 0 .707.707l2.146-2.146 2.146 2.146a.5.5 0 0 0 .707-.707z" fill="#fff"/></g></svg>

<svg xmlns="http://www.w3.org/2000/svg" xmlns:xlink="http://www.w3.org/1999/xlink" width="22" height="22" viewBox="0 0 22 22">
  <metadata><?xpacket begin="﻿" id="W5M0MpCehiHzreSzNTczkc9d"?>
<x:xmpmeta xmlns:x="adobe:ns:meta/" x:xmptk="Adobe XMP Core 5.6-c138 79.159824, 2016/09/14-01:09:01        ">
   <rdf:RDF xmlns:rdf="http://www.w3.org/1999/02/22-rdf-syntax-ns#">
      <rdf:Description rdf:about=""/>
   </rdf:RDF>
</x:xmpmeta>
<?xpacket end="w"?></metadata>
<defs>

     <linearGradient id="linear-gradient" x1="10" x2="10" y2="20" gradientUnits="userSpaceOnUse">
      <stop offset="0" stop-color="#ff1a21"/>
      <stop offset="1" stop-color="#d90007"/>
    </linearGradient>
  </defs>
  <path id="O1" style="fill-rule: evenodd;" fill="url(#linear-gradient)"  d="M10,16.5a6.493,6.493,0,0,1,10-5.472c0-.009,0-0.018,0-0.028a10.064,10.064,0,1,0-8.321,9.848A6.467,6.467,0,0,1,10,16.5Zm0.419-3.3,2.666-2.7a0.037,0.037,0,0,1,.063 .027v0.41A6.444,6.444,0,0,1,15,10.181V7.55a0.3,0.3,0,0,0-.3-0.3H13.838a0.589,0.589,0,0,0-.419 .176L10.1,10.781a0.146,0.146,0,0,1-.209,0L6.581,7.426A0.589,0.589,0,0,0,6.162,7.25H5.3a0.3,0.3,0,0,0-.3 .3v6.9a0.3,0.3,0,0,0,.3 .3H6.556a0.3,0.3,0,0,0,.3-0.3V10.528A0.037,0.037,0,0,1,6.915,10.5l2.666,2.7A0.587,0.587,0,0,0,10.419,13.2Z"/>
  <path id="M" style="fill: #fff;fill-rule: evenodd;" d="M10.419,13.2l2.666-2.7a0.037,0.037,0,0,1,.063 .027v0.41A6.444,6.444,0,0,1,15,10.181V7.55a0.3,0.3,0,0,0-.3-0.3H13.838a0.589,0.589,0,0,0-.419 .176L10.1,10.781a0.146,0.146,0,0,1-.209,0L6.581,7.426A0.589,0.589,0,0,0,6.162,7.25H5.3a0.3,0.3,0,0,0-.3 .3v6.9a0.3,0.3,0,0,0,.3 .3H6.556a0.3,0.3,0,0,0,.3-0.3V10.528A0.037,0.037,0,0,1,6.915,10.5l2.666,2.7A0.587,0.587,0,0,0,10.419,13.2Z"/>
  <path id="O2" style="opacity: 0.7;fill-rule: evenodd;" d="M11,16.5A5.5,5.5,0,1,0,16.5,11,5.5,5.5,0,0,0,11,16.5Z"/>
  <path style="fill: #fff;fill-rule: evenodd;" d="M17.207,16.5l2.146-2.146a0.5,0.5,0,0,0-.707-0.707L16.5,15.793l-2.146-2.146a0.5,0.5,0,0,0-.707 .707L15.793,16.5l-2.146,2.146a0.5,0.5,0,1,0,.707 .707L16.5,17.207l2.146,2.146a0.5,0.5,0,0,0,.707-0.707Z"/>
</svg>
